docs/public/static/branding/about/illustrations/trust-light.svg

<svg width="75" height="92" viewBox="0 0 75 92" fill="none" xmlns="http://www.w3.org/2000/svg">
<path d="M38.9155 71.6824L34.7412 83.1021C34.1424 84.7404 31.9234 84.9777 30.9917 83.5031L28.2474 79.1599C27.7374 78.3527 26.7474 77.991 25.8372 78.2791L20.9638 79.8217C19.2964 80.3496 17.7518 78.7281 18.3598 77.0883L21.5311 68.5351" stroke="#8DCEFF" stroke-width="2.52123" stroke-linecap="round" stroke-linejoin="round"/>
<path d="M38.7031 70.426L41.7111 83.7822C42.0943 85.4838 44.2642 86.0045 45.3778 84.662L48.6589 80.7066C49.2685 79.9717 50.297 79.7403 51.1627 80.1433L55.813 82.3082C57.3949 83.0446 59.1332 81.6434 58.7492 79.9412L55.6199 66.0664" stroke="#8DCEFF" stroke-width="2.52123" stroke-linecap="round" stroke-linejoin="round"/>
<path d="M73.4326 37.3651C73.4326 38.8263 70.0626 40.5397 69.8546 41.9863C69.6476 43.4318 72.3968 46.0244 71.9861 47.4269C71.5753 48.8282 67.8586 49.5237 67.2504 50.8547C66.6432 52.1846 68.553 55.4475 67.763 56.6755C66.9731 57.9057 63.2133 57.5233 62.2563 58.6284C61.2982 59.7336 62.21 63.3999 61.1059 64.3579C60.0019 65.316 56.5005 63.8915 55.2704 64.6804C54.0423 65.4704 53.8837 69.2481 52.5548 69.8531C51.2238 70.4624 48.2656 68.1072 46.8663 68.5169C45.4638 68.9297 44.2463 72.5099 42.8008 72.7168C41.3542 72.9248 39.1765 69.8342 37.7174 69.8342C36.2582 69.8342 34.0921 72.8114 32.6329 72.7168C31.1769 72.6233 29.9709 68.9297 28.5685 68.5169C27.1671 68.1072 24.2088 70.4624 22.88 69.8531C21.55 69.2481 21.3903 65.4694 20.1644 64.6804C18.9342 63.8904 15.4318 65.3149 14.3267 64.3579C13.2247 63.3999 14.1355 59.7336 13.1785 58.6284C12.2225 57.5233 8.45959 57.9046 7.66961 56.6755C6.88172 55.4475 8.7884 52.1846 8.18226 50.8547C7.57506 49.5247 3.85835 48.8293 3.4476 47.4269C3.0358 46.0244 5.78604 43.4318 5.57804 41.9863C5.37004 40.5408 2 38.8263 2 37.3651C2 35.9038 5.37004 34.1883 5.57804 32.7439C5.78604 31.2963 3.0358 28.7047 3.4476 27.3012C3.85835 25.8998 7.57401 25.2065 8.18226 23.8755C8.78735 22.5487 6.88067 19.2837 7.66961 18.0556C8.45959 16.8255 12.2225 17.2047 13.1785 16.1006C14.1366 14.9955 13.2247 11.3282 14.3267 10.3712C15.4308 9.41414 18.9332 10.8376 20.1644 10.0486C21.3935 9.25866 21.5511 5.48103 22.88 4.87383C24.2099 4.26874 27.1671 6.61978 28.5685 6.20903C29.9709 5.79828 31.1769 2.10469 32.6329 2.01014C34.0921 1.91664 36.2572 4.89379 37.7174 4.89379C39.1776 4.89379 41.3542 1.80109 42.8008 2.01014C44.2463 2.21814 45.4638 5.79723 46.8663 6.20903C48.2666 6.61978 51.2238 4.26874 52.5548 4.87383C53.8837 5.48103 54.0423 9.25971 55.2704 10.0486C56.5005 10.8376 60.0019 9.41414 61.1059 10.3712C62.21 11.3271 61.2992 14.9955 62.2563 16.1006C63.2133 17.2047 66.9731 16.8255 67.763 18.0556C68.553 19.2837 66.6463 22.5487 67.2504 23.8755C67.8586 25.2065 71.5753 25.8998 71.9861 27.3012C72.3968 28.7047 69.6476 31.2973 69.8546 32.7439C70.0626 34.1894 73.4326 35.9059 73.4326 37.3651Z" fill="#E7F2FE" fill-opacity="0.5"/>
<path d="M15.9144 47.8638C15.1696 46.3206 16.5615 43.9927 16.1728 42.2825C15.7967 40.6258 13.5234 39.1341 13.5234 37.364C13.5234 35.5939 15.7967 34.1022 16.1728 32.4455C16.5615 30.7353 15.1696 28.4073 15.9144 26.8641C16.6708 25.2957 19.3664 24.9375 20.4421 23.5897C21.5231 22.2366 21.2773 19.5295 22.6314 18.4485C23.9781 17.3728 26.5603 18.2111 28.1297 17.4547C29.6729 16.7099 30.6216 14.1614 32.3318 13.7727C33.9884 13.3956 35.9455 15.2718 37.7157 15.2718C39.4858 15.2718 41.4429 13.3956 43.0995 13.7727C44.8108 14.1614 45.7594 16.7099 47.3026 17.4547C48.871 18.2111 51.4532 17.3728 52.801 18.4485C54.1551 19.5295 53.9082 22.2366 54.9892 23.5897C56.0649 24.9375 58.7605 25.2957 59.518 26.8641C60.2617 28.4073 58.8698 30.7353 59.2585 32.4455C59.6356 34.1022 61.9089 35.5939 61.9089 37.364C61.9089 39.1341 59.6356 40.6258 59.2585 42.2825C58.8698 43.9927 60.2617 46.3206 59.518 47.8638C58.7605 49.4323 56.0649 49.7905 54.9892 51.1383" stroke="#8DCEFF" stroke-width="2.52123" stroke-linecap="round" stroke-linejoin="round"/>
<path d="M28.3421 35.3292C28.3421 35.3292 30.6638 41.9674 31.3634 44.7733V44.7722C33.143 51.9104 38.2779 53.8014 39.5217 56.3236C40.4987 58.3044 41.482 60.0431 42.8399 62.321C43.2965 63.0869 44.1908 63.479 45.0509 63.2438C45.9833 62.9889 47.1759 62.6101 48.0242 62.1533C48.8024 61.7342 49.6838 61.038 50.3863 60.431C51.1572 59.7649 51.251 58.6325 50.6825 57.7869C49.6058 56.1858 48.9326 55.0208 48.3974 53.6868C47.1662 50.6173 47.8102 50.1971 48.6254 48.095C49.4406 45.9929 49.4154 42.3792 49.6475 41.148C50.1665 38.3977 51.5069 36.9795 50.1612 36.2893C49.0792 35.7347 47.5707 37.1865 47.078 38.8662C46.184 41.9159 45.9434 45.5254 45.0127 38.5133C44.6524 35.7977 43.6019 28.6616 43.2951 25.9397C43.189 24.9922 42.6112 24.3261 41.8349 24.428C40.8894 24.552 40.5113 25.3924 40.5858 26.3442C40.7802 28.8244 40.9094 35.2746 41.0155 37.4491C41.0292 37.7433 40.7854 37.9996 40.6772 37.5174C40.1215 35.0455 38.6004 26.5501 38.072 23.7809C37.8524 22.6317 36.8544 22.0297 35.9836 22.5277C35.4016 22.8607 35.1053 23.5645 35.2114 24.2484C35.6075 26.8085 37.2326 37.9218 37.2326 37.9218C37.3881 38.7139 36.9857 38.6677 36.8177 38.134L36.7882 38.0595C36.7882 38.0595 33.933 29.6753 33.3489 27.505C33.1073 26.6057 32.5347 25.8168 31.6575 26.0637C30.7825 26.3105 30.5776 27.2392 30.7919 28.1458C31.4044 30.7342 33.3993 38.0994 33.9613 40.3548C34.2019 41.3213 34.0212 41.3843 33.7218 40.7603C33.373 40.0344 31.0871 35.3061 30.71 34.4394C30.3539 33.6211 29.6826 32.8899 28.8495 33.2114C28.0165 33.5328 28.0207 34.4951 28.3421 35.3292Z" fill="url(#paint0_linear_731_1735)"/>
<path d="M48.1458 32.1776C48.1458 32.1776 44.8661 40.1604 44.0877 42.9453H44.0856C42.1043 50.0321 40.6042 50.1361 38.0126 54.3266C37.8414 54.6249 37.6638 54.9264 37.4789 55.23C37.4779 55.2332 37.4758 55.2353 37.4747 55.2384C37.4737 55.2405 37.4716 55.2416 37.4716 55.2437C36.2667 57.2228 34.7728 59.306 32.9765 61.469C32.311 62.2703 31.584 63.12 30.8062 64.0049C30.2491 64.6387 29.3639 64.8693 28.5797 64.5576C27.2521 64.0299 25.2066 63.1311 23.8942 62.1434C22.8028 61.3219 21.61 59.9811 20.7659 58.9522C20.0998 58.1403 20.2081 56.9687 20.9504 56.2257C21.9475 55.2275 22.7917 54.3216 23.4357 53.5461C24.1133 52.7309 24.7709 51.986 25.2857 51.2118C27.1188 48.4584 25.834 43.2227 25.6397 40.9767C25.4453 38.7307 25.7143 36.3334 26.3467 35.2514C28.3122 31.8898 25.6607 29.9758 27.7197 29.6375C29.4373 29.3549 29.8449 32.892 29.5413 35.285C29.5434 35.284 29.5465 35.2829 29.5486 35.2819C28.9456 40.027 30.2472 38.0521 30.9826 34.495C31.5373 31.8131 32.8325 26.4881 33.3735 23.803C33.5616 22.868 34.194 22.2556 34.9588 22.4236C35.8906 22.6285 36.1942 23.4994 36.0376 24.4406C35.63 26.8946 34.8936 31.4244 34.5711 33.9971C34.527 34.3459 34.8054 34.5266 34.9409 33.9561C35.5954 31.1891 37.1228 25.7107 37.7678 22.9426C38.0273 21.829 39.0663 21.2681 39.9424 21.7755C40.5275 22.1148 40.8091 22.8081 40.6798 23.472C40.1966 25.9565 38.7784 34.5644 38.7784 34.5644C38.583 35.5025 39.0326 35.4626 39.2364 34.8323C39.2364 34.8323 41.2062 28.3222 41.7944 26.0573C42.0382 25.1192 42.638 24.2883 43.5782 24.5247C44.5184 24.761 44.7516 25.7201 44.5373 26.6656C43.9249 29.3644 43.0256 34.8134 42.4489 37.5153C42.202 38.674 42.2682 38.8084 42.6201 38.0752C43.0298 37.2222 45.4019 32.0789 45.8042 31.2227C46.1835 30.4149 46.8747 29.7026 47.6983 30.0472C48.5219 30.3918 48.4914 31.353 48.1458 32.1776Z" fill="url(#paint1_linear_731_1735)"/>
<path d="M73.4326 37.3651C73.4326 38.8263 70.0626 40.5397 69.8546 41.9863C69.6476 43.4318 72.3968 46.0244 71.9861 47.4269C71.5753 48.8282 67.8586 49.5237 67.2504 50.8547C66.6432 52.1846 68.553 55.4475 67.763 56.6755C66.9731 57.9057 63.2133 57.5233 62.2563 58.6284C61.2982 59.7336 62.21 63.3999 61.1059 64.3579C60.0019 65.316 56.5005 63.8915 55.2704 64.6804C54.0423 65.4704 53.8837 69.2481 52.5548 69.8531C51.2238 70.4624 48.2656 68.1072 46.8663 68.5169C45.4638 68.9297 44.2463 72.5099 42.8008 72.7168C41.3542 72.9248 39.1765 69.8342 37.7174 69.8342C36.2582 69.8342 34.0921 72.8114 32.6329 72.7168C31.1769 72.6233 29.9709 68.9297 28.5685 68.5169C27.1671 68.1072 24.2088 70.4624 22.88 69.8531C21.55 69.2481 21.3903 65.4694 20.1644 64.6804C18.9342 63.8904 15.4318 65.3149 14.3267 64.3579C13.2247 63.3999 14.1355 59.7336 13.1785 58.6284C12.2225 57.5233 8.45959 57.9046 7.66961 56.6755C6.88172 55.4475 8.7884 52.1846 8.18226 50.8547C7.57506 49.5247 3.85835 48.8293 3.4476 47.4269C3.0358 46.0244 5.78604 43.4318 5.57804 41.9863C5.37004 40.5408 2 38.8263 2 37.3651C2 35.9038 5.37004 34.1883 5.57804 32.7439C5.78604 31.2963 3.0358 28.7047 3.4476 27.3012C3.85835 25.8998 7.57401 25.2065 8.18226 23.8755C8.78735 22.5487 6.88067 19.2837 7.66961 18.0556C8.45959 16.8255 12.2225 17.2047 13.1785 16.1006C14.1366 14.9955 13.2247 11.3282 14.3267 10.3712C15.4308 9.41414 18.9332 10.8376 20.1644 10.0486C21.3935 9.25866 21.5511 5.48103 22.88 4.87383C24.2099 4.26874 27.1671 6.61978 28.5685 6.20903C29.9709 5.79828 31.1769 2.10469 32.6329 2.01014C34.0921 1.91664 36.2572 4.89379 37.7174 4.89379C39.1776 4.89379 41.3542 1.80109 42.8008 2.01014C44.2463 2.21814 45.4638 5.79723 46.8663 6.20903C48.2666 6.61978 51.2238 4.26874 52.5548 4.87383C53.8837 5.48103 54.0423 9.25971 55.2704 10.0486C56.5005 10.8376 60.0019 9.41414 61.1059 10.3712C62.21 11.3271 61.2992 14.9955 62.2563 16.1006C63.2133 17.2047 66.9731 16.8255 67.763 18.0556C68.553 19.2837 66.6463 22.5487 67.2504 23.8755C67.8586 25.2065 71.5753 25.8998 71.9861 27.3012C72.3968 28.7047 69.6476 31.2973 69.8546 32.7439C70.0626 34.1894 73.4326 35.9059 73.4326 37.3651Z" stroke="#8DCEFF" stroke-width="2.52123" stroke-linecap="round" stroke-linejoin="round"/>
<defs>
<linearGradient id="paint0_linear_731_1735" x1="28.1416" y1="31.7621" x2="53.5481" y2="33.7259" gradientUnits="userSpaceOnUse">
<stop stop-color="#004C99"/>
<stop offset="1" stop-color="#0072E6"/>
</linearGradient>
<linearGradient id="paint1_linear_731_1735" x1="50.4995" y1="31.2268" x2="15.2955" y2="35.9371" gradientUnits="userSpaceOnUse">
<stop stop-color="#007FFF"/>
<stop offset="1" stop-color="#3399FF"/>
</linearGradient>
</defs>
</svg>

<svg xmlns="http://www.w3.org/2000/svg" width="75" height="92" fill="none"><path stroke="#8DCEFF" stroke-linecap="round" stroke-linejoin="round" stroke-width="2.521" d="m38.916 71.682-4.175 11.42c-.599 1.638-2.818 1.876-3.75.401l-2.744-4.343a2.1 2.1 0 0 0-2.41-.88l-4.873 1.542c-1.668.528-3.212-1.094-2.604-2.734l3.171-8.553M38.703 70.426l3.008 13.356c.383 1.702 2.553 2.222 3.667.88l3.28-3.955a2.101 2.101 0 0 1 2.505-.564l4.65 2.165c1.582.737 3.32-.665 2.936-2.367l-3.13-13.875"/><path fill="#E7F2FE" fill-opacity=".5" d="M73.433 37.365c0 1.461-3.37 3.175-3.578 4.621-.207 1.446 2.542 4.038 2.131 5.44-.41 1.402-4.127 2.098-4.736 3.429-.607 1.33 1.303 4.593.513 5.82-.79 1.23-4.55.848-5.507 1.953-.958 1.106-.046 4.772-1.15 5.73-1.104.958-4.605-.467-5.836.322-1.228.79-1.386 4.568-2.715 5.173-1.331.61-4.29-1.746-5.689-1.336-1.402.413-2.62 3.993-4.065 4.2-1.447.208-3.625-2.883-5.084-2.883-1.459 0-3.625 2.977-5.084 2.883-1.456-.094-2.662-3.787-4.065-4.2-1.4-.41-4.36 1.945-5.688 1.336-1.33-.605-1.49-4.384-2.716-5.173-1.23-.79-4.732.635-5.837-.322-1.102-.958-.191-4.624-1.149-5.73-.956-1.105-4.718-.723-5.508-1.953-.788-1.227 1.118-4.49.512-5.82-.607-1.33-4.324-2.026-4.734-3.428-.412-1.403 2.338-3.995 2.13-5.44C5.37 40.54 2 38.826 2 37.364c0-1.461 3.37-3.177 3.578-4.621.208-1.448-2.542-4.04-2.13-5.443.41-1.401 4.126-2.095 4.734-3.425.605-1.327-1.301-4.592-.512-5.82.79-1.23 4.553-.851 5.508-1.955.959-1.105.047-4.773 1.149-5.73 1.104-.957 4.606.467 5.837-.322 1.23-.79 1.387-4.568 2.716-5.175 1.33-.605 4.287 1.746 5.689 1.335 1.402-.41 2.608-4.104 4.064-4.199 1.46-.093 3.624 2.884 5.084 2.884 1.46 0 3.637-3.093 5.084-2.884 1.445.208 2.663 3.787 4.065 4.199 1.4.41 4.358-1.94 5.689-1.335 1.329.607 1.487 4.386 2.715 5.175 1.23.789 4.732-.635 5.836.322 1.104.956.193 4.624 1.15 5.73.957 1.104 4.717.725 5.507 1.955.79 1.228-1.117 4.493-.513 5.82.609 1.33 4.325 2.024 4.736 3.425.41 1.404-2.338 3.996-2.131 5.443.208 1.445 3.578 3.162 3.578 4.621Z"/><path stroke="#C2E0FF" stroke-linecap="round" stroke-linejoin="round" stroke-opacity=".5" stroke-width="2.801" d="M15.914 47.864c-.744-1.543.647-3.871.259-5.581-.376-1.657-2.65-3.149-2.65-4.919 0-1.77 2.274-3.262 2.65-4.918.389-1.71-1.003-4.039-.259-5.582.757-1.568 3.452-1.927 4.528-3.274 1.081-1.353.835-4.06 2.19-5.142 1.346-1.075 3.928-.237 5.498-.993 1.543-.745 2.492-3.294 4.202-3.682 1.656-.377 3.614 1.499 5.384 1.499 1.77 0 3.727-1.876 5.383-1.5 1.712.39 2.66 2.938 4.204 3.683 1.568.756 4.15-.082 5.498.994 1.354 1.08 1.107 3.788 2.188 5.14 1.076 1.349 3.772 1.707 4.529 3.275.744 1.543-.648 3.871-.26 5.582.378 1.656 2.65 3.148 2.65 4.918s-2.272 3.262-2.65 4.919c-.388 1.71 1.004 4.038.26 5.58-.758 1.57-3.453 1.928-4.529 3.275"/><path fill="url(#a)" d="M28.342 35.33s2.322 6.637 3.021 9.443c1.78 7.137 6.915 9.028 8.159 11.55.977 1.981 1.96 3.72 3.318 5.998.456.766 1.35 1.158 2.21.923.933-.255 2.126-.634 2.974-1.09.778-.42 1.66-1.116 2.362-1.723.771-.666.865-1.798.296-2.644-1.076-1.601-1.75-2.766-2.285-4.1-1.23-3.07-.587-3.49.228-5.592.816-2.102.79-5.716 1.023-6.947.518-2.75 1.859-4.169.513-4.859-1.082-.554-2.59.898-3.083 2.577-.894 3.05-1.135 6.66-2.065-.353-.36-2.715-1.411-9.851-1.718-12.573-.106-.948-.684-1.614-1.46-1.512-.946.124-1.324.964-1.25 1.916.195 2.48.324 8.93.43 11.105.014.294-.23.55-.338.068-.556-2.472-2.077-10.967-2.605-13.736-.22-1.15-1.218-1.751-2.088-1.253-.582.333-.879 1.037-.773 1.72.397 2.56 2.022 13.674 2.022 13.674.155.792-.247.746-.415.212l-.03-.075s-2.855-8.384-3.44-10.554c-.24-.9-.813-1.688-1.69-1.441-.876.247-1.08 1.175-.866 2.082.612 2.588 2.607 9.953 3.17 12.209.24.966.06 1.03-.24.405-.349-.726-2.635-5.454-3.012-6.32-.356-.819-1.027-1.55-1.86-1.229-.834.322-.83 1.284-.508 2.118Z"/><path fill="url(#b)" d="M48.146 32.178s-3.28 7.982-4.058 10.767h-.002c-1.982 7.087-3.482 7.191-6.073 11.382-.172.298-.35.6-.534.903l-.004.008-.003.006c-1.205 1.979-2.7 4.062-4.495 6.225-.666.801-1.393 1.651-2.17 2.536a1.986 1.986 0 0 1-2.227.553c-1.328-.528-3.373-1.427-4.686-2.415-1.091-.821-2.284-2.162-3.128-3.19-.666-.813-.558-1.984.184-2.727.998-.998 1.842-1.904 2.486-2.68.677-.815 1.335-1.56 1.85-2.334 1.833-2.754.548-7.99.354-10.235-.195-2.246.074-4.644.707-5.726 1.965-3.361-.686-5.275 1.373-5.613 1.717-.283 2.125 3.254 1.821 5.647l.008-.003c-.603 4.745.698 2.77 1.434-.787.554-2.682 1.85-8.007 2.39-10.692.189-.935.821-1.547 1.586-1.38.932.206 1.235 1.076 1.079 2.018-.408 2.454-1.144 6.983-1.467 9.556-.044.349.234.53.37-.04.654-2.768 2.182-8.246 2.827-11.014.26-1.114 1.298-1.675 2.174-1.168.586.34.867 1.033.738 1.697-.483 2.484-1.902 11.092-1.902 11.092-.195.938.255.899.458.268 0 0 1.97-6.51 2.558-8.775.244-.938.844-1.769 1.784-1.532.94.236 1.174 1.195.96 2.14-.613 2.7-1.512 8.148-2.09 10.85-.246 1.159-.18 1.293.172.56.41-.853 2.782-5.996 3.184-6.852.38-.808 1.07-1.52 1.894-1.176.824.345.793 1.306.448 2.13Z"/><path stroke="#8DCEFF" stroke-linecap="round" stroke-linejoin="round" stroke-width="2.521" d="M73.433 37.365c0 1.461-3.37 3.175-3.578 4.621-.207 1.446 2.542 4.038 2.131 5.44-.41 1.402-4.127 2.098-4.736 3.429-.607 1.33 1.303 4.593.513 5.82-.79 1.23-4.55.848-5.507 1.953-.958 1.106-.046 4.772-1.15 5.73-1.104.958-4.605-.467-5.836.322-1.228.79-1.386 4.568-2.715 5.173-1.331.61-4.29-1.746-5.689-1.336-1.402.413-2.62 3.993-4.065 4.2-1.447.208-3.625-2.883-5.084-2.883-1.459 0-3.625 2.977-5.084 2.883-1.456-.094-2.662-3.787-4.065-4.2-1.4-.41-4.36 1.945-5.688 1.336-1.33-.605-1.49-4.384-2.716-5.173-1.23-.79-4.732.635-5.837-.322-1.102-.958-.191-4.624-1.149-5.73-.956-1.105-4.718-.723-5.508-1.953-.788-1.227 1.118-4.49.512-5.82-.607-1.33-4.324-2.026-4.734-3.428-.412-1.403 2.338-3.995 2.13-5.44C5.37 40.54 2 38.826 2 37.364c0-1.461 3.37-3.177 3.578-4.621.208-1.448-2.542-4.04-2.13-5.443.41-1.401 4.126-2.095 4.734-3.425.605-1.327-1.301-4.592-.512-5.82.79-1.23 4.553-.851 5.508-1.955.959-1.105.047-4.773 1.149-5.73 1.104-.957 4.606.467 5.837-.322 1.23-.79 1.387-4.568 2.716-5.175 1.33-.605 4.287 1.746 5.689 1.335 1.402-.41 2.608-4.104 4.064-4.199 1.46-.093 3.624 2.884 5.084 2.884 1.46 0 3.637-3.093 5.084-2.884 1.445.208 2.663 3.787 4.065 4.199 1.4.41 4.358-1.94 5.689-1.335 1.329.607 1.487 4.386 2.715 5.175 1.23.789 4.732-.635 5.836.322 1.104.956.193 4.624 1.15 5.73.957 1.104 4.717.725 5.507 1.955.79 1.228-1.117 4.493-.513 5.82.609 1.33 4.325 2.024 4.736 3.425.41 1.404-2.338 3.996-2.131 5.443.208 1.445 3.578 3.162 3.578 4.621Z"/><defs><linearGradient id="a" x1="28.142" x2="53.548" y1="31.762" y2="33.726" gradientUnits="userSpaceOnUse"><stop stop-color="#004C99"/><stop offset="1" stop-color="#0072E6"/></linearGradient><linearGradient id="b" x1="50.499" x2="15.296" y1="31.227" y2="35.937" gradientUnits="userSpaceOnUse"><stop stop-color="#007FFF"/><stop offset="1" stop-color="#39F"/></linearGradient></defs></svg>
